frontend/public/assets/material-icons/folder-syntax-open.svg

<svg xmlns="http://www.w3.org/2000/svg" viewBox="0 0 32 32">
  <path d="M28.96692,12H9.44152a2,2,0,0,0-1.89737,1.36754L4,24V10H28a2,2,0,0,0-2-2H15.1241a2,2,0,0,1-1.28038-.46357L12.5563,6.46357A2,2,0,0,0,11.27592,6H4A2,2,0,0,0,2,8V24a2,2,0,0,0,2,2H26l4.80523-11.21213A2,2,0,0,0,28.96692,12Z" style="fill: #ef5350"/>
  <g>
    <path d="M31.86956,19.91722l-1.30673-1.37834a.47655.47655,0,0,0-.691-.00093L22.716,26.07608l-3.05709-3.22917a.47651.47651,0,0,0-.34505-.14881H19.3129a.47929.47929,0,0,0-.34505.14788L17.65834,24.2234a.47654.47654,0,0,0,0,.65662l4.721,4.9721a.47655.47655,0,0,0,.691-.00093l8.79924-9.2792A.47606.47606,0,0,0,31.86956,19.91722Z" style="fill: #ffcdd2"/>
    <path d="M21.29206,23.33612a.47688.47688,0,0,0,.44828.31436H23.6795a.47606.47606,0,0,0,.44643-.64267l-4.73955-12.6981A.4769.4769,0,0,0,18.94,10H17.21563a.4769.4769,0,0,0-.44643.30971l-4.73955,12.6981a.47606.47606,0,0,0,.44643.64267h1.93916a.47753.47753,0,0,0,.44921-.31715l.92541-2.61253h4.55819ZM19.32127,17.8125H16.83245l1.24441-3.49423Z" style="fill: #ffcdd2"/>
  </g>
</svg>

<svg xmlns="http://www.w3.org/2000/svg" viewBox="0 0 32 32"><path fill="#ef5350" d="M28.967 12H9.442a2 2 0 0 0-1.898 1.368L4 24V10h24a2 2 0 0 0-2-2H15.124a2 2 0 0 1-1.28-.464l-1.288-1.072A2 2 0 0 0 11.276 6H4a2 2 0 0 0-2 2v16a2 2 0 0 0 2 2h22l4.805-11.212A2 2 0 0 0 28.967 12"/><path fill="#ffcdd2" d="m31.87 19.917-1.307-1.378a.477.477 0 0 0-.691-.001l-7.156 7.538-3.057-3.23a.48.48 0 0 0-.345-.148h-.001a.48.48 0 0 0-.345.148l-1.31 1.377a.477.477 0 0 0 0 .657l4.721 4.972a.477.477 0 0 0 .691 0l8.8-9.28a.476.476 0 0 0 0-.655"/><path fill="#ffcdd2" d="M21.292 23.336a.48.48 0 0 0 .448.314h1.94a.476.476 0 0 0 .446-.642l-4.74-12.698a.48.48 0 0 0-.446-.31h-1.724a.48.48 0 0 0-.447.31l-4.74 12.698a.476.476 0 0 0 .447.642h1.94a.48.48 0 0 0 .448-.317l.926-2.612h4.558Zm-1.97-5.523h-2.49l1.245-3.495Z"/></svg>
